icons/medicine_bottle.svg

<svg width="48" height="48" viewBox="0 0 48 48" fill="none" xmlns="http://www.w3.org/2000/svg">
<path d="M23 23V28H18V30H23V35H25V30H30V28H25V23H23Z" fill="black"/>
<path fill-rule="evenodd" clip-rule="evenodd" d="M9 7C9 5.34315 10.3431 4 12 4H36C37.6569 4 39 5.34315 39 7V15C39 16.6569 37.6569 18 36 18V41C36 42.6569 34.6569 44 33 44H15C13.3431 44 12 42.6569 12 41L12 18C10.3431 18 9 16.6569 9 15V7ZM14 18H34V41C34 41.5523 33.5523 42 33 42H15C14.4477 42 14 41.5523 14 41V18ZM36 16H32V6H36C36.5523 6 37 6.44772 37 7V15C37 15.5523 36.5523 16 36 16ZM30 6H25V16H30V6ZM12 6H16L16 16H12C11.4477 16 11 15.5523 11 15V7C11 6.44772 11.4477 6 12 6ZM18 16V6H23L23 16H18Z" fill="black"/>
</svg>

<svg
  xmlns="http://www.w3.org/2000/svg"
  width="24"
  height="24"
  viewBox="0 0 24 24"
  fill="none"
  stroke="currentColor"
  stroke-width="2"
  stroke-linecap="round"
  stroke-linejoin="round"
>
  <path d="M23 23v5h-5v2h5v5h2v-5h5v-2h-5v-5z" />
  <path
    fill-rule="evenodd"
    d="M9 7a3 3 0 0 1 3-3h24a3 3 0 0 1 3 3v8a3 3 0 0 1-3 3v23a3 3 0 0 1-3 3H15a3 3 0 0 1-3-3V18a3 3 0 0 1-3-3zm5 11h20v23a1 1 0 0 1-1 1H15a1 1 0 0 1-1-1zm22-2h-4V6h4a1 1 0 0 1 1 1v8a1 1 0 0 1-1 1M30 6h-5v10h5zM12 6h4v10h-4a1 1 0 0 1-1-1V7a1 1 0 0 1 1-1m6 10V6h5v10z"
    clip-rule="evenodd"
  />
</svg>
